static/img/in-field/segmented-controls-secondary-disabled.svg

<svg fill="none" height="56" viewBox="0 0 427 56" width="427" xmlns="http://www.w3.org/2000/svg" xmlns:xlink="http://www.w3.org/1999/xlink"><clipPath id="a"><rect height="52" rx="8" width="423" x="2" y="2"/></clipPath><g opacity=".4"><g clip-path="url(#a)"><rect fill="#353a40" height="53" rx="6.5" width="138" x="1.5" y="1.5"/><path d="m50.6104 37h-3.2764v-15.7051h9.0019v2.7285h-5.7255v4.0498h5.3281v2.7178h-5.3281zm12.0664-12.0098v12.0098h-3.2764v-12.0098zm-1.6329-4.705c.487 0 .906.1145 1.2569.3437.3509.222.5263.641.5263 1.2568 0 .6088-.1754 1.0313-.5263 1.2676-.3509.2292-.7699.3438-1.2569.3438-.4941 0-.9166-.1146-1.2675-.3438-.3438-.2363-.5157-.6588-.5157-1.2676 0-.6158.1719-1.0348.5157-1.2568.3509-.2292.7734-.3437 1.2675-.3437zm12.0342 4.4794c.1647 0 .3545.0108.5694.0323.222.0143.401.0358.5371.0644l-.2471 3.0723c-.1074-.0358-.2614-.0609-.4619-.0752-.1934-.0215-.3617-.0322-.5049-.0322-.4225 0-.8343.0537-1.2353.1611-.3939.1074-.7484.2829-1.0635.5264-.3151.2363-.5658.5514-.752.9453-.179.3867-.2685.8629-.2685 1.4287v6.1123h-3.2764v-12.0098h2.4814l.4834 2.0196h.1612c.2363-.4082.5299-.7806.8808-1.1172.3581-.3438.7627-.6159 1.2139-.8164.4583-.2077.9525-.3116 1.4824-.3116zm11.916 8.669c0 .8164-.1933 1.5075-.58 2.0732-.3796.5586-.9489.9847-1.708 1.2784-.7592.2864-1.7045.4296-2.836.4296-.8379 0-1.5576-.0537-2.1592-.1611-.5944-.1074-1.1959-.2864-1.8047-.5371v-2.707c.6517.2936 1.35.5371 2.0948.7304.7519.1862 1.4108.2793 1.9765.2793.6374 0 1.0922-.0931 1.3643-.2793.2793-.1933.4189-.444.4189-.7519 0-.2005-.0572-.3796-.1718-.5371-.1075-.1647-.3438-.3474-.709-.5479-.3653-.2077-.9382-.4762-1.7188-.8056-.7519-.3151-1.3714-.6338-1.8584-.9561-.4798-.3223-.8379-.7018-1.0742-1.1387-.2292-.444-.3437-1.0062-.3437-1.6865 0-1.11.4297-1.9443 1.289-2.5029.8666-.5658 2.0231-.8487 3.4698-.8487.7447 0 1.4537.0752 2.1269.2256.6803.1504 1.3786.3903 2.0947.7198l-.9882 2.3632c-.5944-.2578-1.1566-.469-1.6866-.6337-.5228-.1648-1.0563-.2471-1.6006-.2471-.4798 0-.8414.0644-1.0849.1933s-.3653.3259-.3653.5909c0 .1933.0609.3652.1827.5156.1289.1504.3724.3187.7304.5049.3653.179.8988.4118 1.6006.6982.6804.2793 1.2712.5729 1.7725.8809.5013.3008.888.6767 1.1601 1.1279.2722.444.4082 1.0205.4082 1.7295zm7.8663 1.1709c.358 0 .7054-.0358 1.0419-.1074.3438-.0716.684-.1612 1.0206-.2686v2.4385c-.351.1575-.7878.2865-1.3106.3867-.5156.1074-1.0814.1611-1.6973.1611-.7161 0-1.3606-.1145-1.9336-.3437-.5657-.2363-1.0133-.641-1.3427-1.2139-.3223-.5801-.4834-1.3857-.4834-2.417v-5.79h-1.5684v-1.3857l1.8047-1.0957.9453-2.5352h2.0947v2.5566h3.3623v2.46h-3.3623v5.79c0 .4584.1289.8021.3868 1.0313.2649.222.6123.333 1.042.333z" fill="#fff"/><rect height="53" rx="6.5" stroke="#353a40" width="138" x="1.5" y="1.5"/><path d="m182.902 32.6387c0 .931-.225 1.7402-.676 2.4277-.452.6875-1.11 1.2175-1.977 1.5898-.859.3724-1.905.5586-3.137.5586-.544 0-1.077-.0358-1.6-.1074-.516-.0716-1.014-.1754-1.493-.3115-.473-.1432-.924-.3187-1.354-.5264v-3.0937c.745.3294 1.518.6266 2.32.8916s1.597.3974 2.385.3974c.544 0 .981-.0716 1.311-.2148.336-.1432.58-.3402.73-.5908.151-.2507.226-.5371.226-.8594 0-.3939-.133-.7305-.398-1.0098s-.63-.5407-1.095-.7841c-.459-.2435-.978-.5049-1.558-.7842-.365-.1719-.763-.3796-1.192-.6231-.43-.2506-.838-.555-1.225-.9131-.387-.358-.705-.7913-.956-1.2998-.244-.5156-.365-1.1315-.365-1.8476 0-.9382.214-1.7402.644-2.4063.43-.666 1.042-1.1744 1.837-1.5254.802-.358 1.747-.5371 2.836-.5371.816 0 1.593.0967 2.331.2901.745.1862 1.522.4583 2.331.8164l-1.074 2.5888c-.723-.2936-1.371-.5192-1.944-.6767-.573-.1647-1.157-.2471-1.751-.2471-.416 0-.77.0681-1.064.2041-.293.1289-.515.3151-.666.5586-.15.2363-.225.5121-.225.8272 0 .3724.107.6875.322.9453.222.2506.551.4941.988.7304.444.2364.996.5121 1.654.8272.802.3796 1.486.777 2.052 1.1924.573.4082 1.013.8916 1.321 1.4502.308.5514.462 1.2389.462 2.0625zm7.791-7.8741c1.11 0 2.066.2149 2.869.6446.802.4225 1.421 1.0384 1.858 1.8476.437.8093.655 1.7976.655 2.9649v1.5898h-7.745c.036.9239.312 1.6507.827 2.1807.523.5228 1.246.7842 2.17.7842.766 0 1.468-.0788 2.106-.2364.637-.1575 1.292-.3938 1.965-.7089v2.5351c-.594.2936-1.217.5085-1.869.6445-.644.1361-1.428.2041-2.352.2041-1.203 0-2.27-.222-3.201-.666-.924-.444-1.651-1.1207-2.181-2.0302-.523-.9096-.784-2.0554-.784-3.4375 0-1.4037.236-2.571.709-3.502.48-.9381 1.146-1.64 1.998-2.1055.852-.4726 1.844-.709 2.975-.709zm.022 2.3311c-.638 0-1.167.2041-1.59.6123-.415.4082-.655 1.0492-.72 1.9229h4.598c-.007-.487-.097-.9203-.269-1.2998-.164-.3796-.415-.6804-.752-.9024-.329-.222-.752-.333-1.267-.333zm13.151 10.1191c-1.189 0-2.202-.2148-3.04-.6445-.838-.4368-1.475-1.11-1.912-2.0195s-.655-2.0733-.655-3.4912c0-1.4681.247-2.6641.741-3.5879.501-.931 1.192-1.6149 2.073-2.0518.888-.4368 1.916-.6553 3.083-.6553.831 0 1.547.0824 2.149.2471.608.1576 1.138.3473 1.59.5694l-.967 2.5351c-.516-.2077-.996-.376-1.44-.5049-.444-.136-.888-.2041-1.332-.2041-.573 0-1.049.1361-1.428.4082-.38.265-.663.666-.849 1.2032-.186.5371-.279 1.2102-.279 2.0195 0 .7949.1 1.4538.3 1.9765.201.5228.491.9131.871 1.1709.379.2507.841.376 1.385.376.681 0 1.286-.0895 1.816-.2685.53-.1862 1.045-.444 1.547-.7735v2.8037c-.502.3151-1.028.5407-1.58.6768-.544.1432-1.235.2148-2.073.2148zm17.61-6.2412c0 1.0026-.136 1.8907-.409 2.6641-.265.7734-.655 1.4287-1.171 1.9658-.508.53-1.124.931-1.847 1.2031-.716.2722-1.526.4082-2.428.4082-.845 0-1.622-.136-2.331-.4082-.702-.2721-1.314-.6731-1.837-1.2031-.515-.5371-.917-1.1924-1.203-1.9658-.279-.7734-.419-1.6615-.419-2.6641 0-1.332.236-2.4599.709-3.3838.473-.9238 1.146-1.6256 2.02-2.1054.873-.4798 1.915-.7198 3.126-.7198 1.124 0 2.119.24 2.986.7198.874.4798 1.557 1.1816 2.052 2.1054.501.9239.752 2.0518.752 3.3838zm-8.304 0c0 .7878.086 1.4502.258 1.9873s.44.9418.805 1.2139c.366.2721.842.4082 1.429.4082.58 0 1.049-.1361 1.407-.4082.366-.2721.63-.6768.795-1.2139.172-.5371.258-1.1995.258-1.9873 0-.7949-.086-1.4537-.258-1.9765-.165-.53-.429-.9274-.795-1.1924-.365-.265-.841-.3975-1.428-.3975-.867 0-1.497.2972-1.891.8916-.387.5944-.58 1.486-.58 2.6748zm18.082-6.209c1.282 0 2.313.351 3.094 1.0528.78.6946 1.171 1.8118 1.171 3.3515v7.8311h-3.277v-7.0146c0-.8594-.157-1.5075-.472-1.9444-.308-.4368-.795-.6553-1.461-.6553-1.003 0-1.687.3402-2.052 1.0205-.365.6804-.548 1.6615-.548 2.9434v5.6504h-3.276v-12.0098h2.503l.44 1.5362h.183c.257-.4154.576-.752.956-1.0098.386-.2578.812-.4476 1.278-.5693.473-.1218.96-.1827 1.461-.1827zm11.69 12.4502c-1.339 0-2.431-.5227-3.276-1.5683-.838-1.0527-1.257-2.596-1.257-4.6299 0-2.0553.426-3.6094 1.278-4.6621.853-1.0599 1.966-1.5899 3.341-1.5899.573 0 1.078.0788 1.515.2364.437.1575.813.3688 1.128.6338.322.2649.594.5621.816.8916h.108c-.043-.2292-.097-.5658-.161-1.0098-.058-.4512-.086-.9131-.086-1.3857v-3.8457h3.287v16.7148h-2.514l-.634-1.5576h-.139c-.208.3294-.469.6302-.785.9023-.308.265-.676.4763-1.106.6338-.43.1576-.935.2363-1.515.2363zm1.15-2.6103c.895 0 1.525-.265 1.89-.7949.373-.5371.57-1.3428.591-2.417v-.3545c0-1.1673-.179-2.0589-.537-2.6748-.358-.6231-1.024-.9346-1.998-.9346-.723 0-1.289.3115-1.697.9346-.408.623-.613 1.5218-.613 2.6963 0 1.1744.205 2.0589.613 2.6533.415.5944.999.8916 1.751.8916z" fill="#353a40"/><path d="m284.5 16v24" stroke="#353a40"/><path d="m335.117 37h-3.33v-12.9336h-4.265v-2.7715h11.86v2.7715h-4.265zm9.95-16.7148v3.4052c0 .5944-.021 1.1602-.064 1.6973-.036.5371-.065.9167-.086 1.1387h.172c.258-.4154.562-.752.913-1.0098.358-.2578.752-.4476 1.182-.5693.429-.1218.891-.1827 1.385-.1827.867 0 1.622.154 2.267.462.644.3007 1.146.777 1.504 1.4287.358.6445.537 1.4824.537 2.5136v7.8311h-3.276v-7.0146c0-.8594-.158-1.5075-.473-1.9444-.315-.4368-.802-.6553-1.461-.6553s-1.178.154-1.558.462c-.379.3007-.648.7483-.805 1.3427-.158.5873-.237 1.307-.237 2.1592v5.6504h-3.276v-16.7148zm14.709 4.705v12.0098h-3.276v-12.0098zm-1.632-4.705c.487 0 .905.1145 1.256.3437.351.222.527.641.527 1.2568 0 .6088-.176 1.0313-.527 1.2676-.351.2292-.769.3438-1.256.3438-.495 0-.917-.1146-1.268-.3438-.344-.2363-.516-.6588-.516-1.2676 0-.6158.172-1.0348.516-1.2568.351-.2292.773-.3437 1.268-.3437zm12.034 4.4794c.164 0 .354.0108.569.0323.222.0143.401.0358.537.0644l-.247 3.0723c-.107-.0358-.261-.0609-.462-.0752-.193-.0215-.361-.0322-.505-.0322-.422 0-.834.0537-1.235.1611-.394.1074-.748.2829-1.064.5264-.315.2363-.565.5514-.751.9453-.18.3867-.269.8629-.269 1.4287v6.1123h-3.276v-12.0098h2.481l.483 2.0196h.162c.236-.4082.53-.7806.88-1.1172.359-.3438.763-.6159 1.214-.8164.459-.2077.953-.3116 1.483-.3116zm7.34 12.4502c-1.34 0-2.432-.5227-3.277-1.5683-.838-1.0527-1.257-2.596-1.257-4.6299 0-2.0553.426-3.6094 1.279-4.6621.852-1.0599 1.966-1.5899 3.341-1.5899.572 0 1.077.0788 1.514.2364.437.1575.813.3688 1.128.6338.322.2649.594.5621.816.8916h.108c-.043-.2292-.097-.5658-.161-1.0098-.058-.4512-.086-.9131-.086-1.3857v-3.8457h3.287v16.7148h-2.514l-.634-1.5576h-.139c-.208.3294-.469.6302-.784.9023-.308.265-.677.4763-1.107.6338-.429.1576-.934.2363-1.514.2363zm1.149-2.6103c.895 0 1.525-.265 1.891-.7949.372-.5371.569-1.3428.59-2.417v-.3545c0-1.1673-.179-2.0589-.537-2.6748-.358-.6231-1.024-.9346-1.998-.9346-.723 0-1.289.3115-1.697.9346-.408.623-.612 1.5218-.612 2.6963 0 1.1744.204 2.0589.612 2.6533.415.5944.999.8916 1.751.8916z" fill="#353a40"/></g><rect height="54" rx="9" stroke="#353a40" stroke-width="2" width="425" x="1" y="1"/></g></svg>

<svg width="427" height="56" viewBox="0 0 427 56" fill="none" xmlns="http://www.w3.org/2000/svg"><g opacity=".4"><g clip-path="url(#clip0_7388_84177)"><rect x="1.5" y="1.5" width="138" height="53" rx="6.5" fill="#353A40"/><path d="M50.6104 37H47.334V21.2949H56.3359V24.0234H50.6104V28.0732H55.9385V30.791H50.6104V37ZM62.6768 24.9902V37H59.4004V24.9902H62.6768ZM61.0439 20.2852C61.5309 20.2852 61.9499 20.3997 62.3008 20.6289C62.6517 20.8509 62.8271 21.2699 62.8271 21.8857C62.8271 22.4945 62.6517 22.917 62.3008 23.1533C61.9499 23.3825 61.5309 23.4971 61.0439 23.4971C60.5498 23.4971 60.1273 23.3825 59.7764 23.1533C59.4326 22.917 59.2607 22.4945 59.2607 21.8857C59.2607 21.2699 59.4326 20.8509 59.7764 20.6289C60.1273 20.3997 60.5498 20.2852 61.0439 20.2852ZM73.0781 24.7646C73.2428 24.7646 73.4326 24.7754 73.6475 24.7969C73.8695 24.8112 74.0485 24.8327 74.1846 24.8613L73.9375 27.9336C73.8301 27.8978 73.6761 27.8727 73.4756 27.8584C73.2822 27.8369 73.1139 27.8262 72.9707 27.8262C72.5482 27.8262 72.1364 27.8799 71.7354 27.9873C71.3415 28.0947 70.987 28.2702 70.6719 28.5137C70.3568 28.75 70.1061 29.0651 69.9199 29.459C69.7409 29.8457 69.6514 30.3219 69.6514 30.8877V37H66.375V24.9902H68.8564L69.3398 27.0098H69.501C69.7373 26.6016 70.0309 26.2292 70.3818 25.8926C70.7399 25.5488 71.1445 25.2767 71.5957 25.0762C72.054 24.8685 72.5482 24.7646 73.0781 24.7646ZM84.9941 33.4336C84.9941 34.25 84.8008 34.9411 84.4141 35.5068C84.0345 36.0654 83.4652 36.4915 82.7061 36.7852C81.9469 37.0716 81.0016 37.2148 79.8701 37.2148C79.0322 37.2148 78.3125 37.1611 77.7109 37.0537C77.1165 36.9463 76.515 36.7673 75.9062 36.5166V33.8096C76.5579 34.1032 77.2562 34.3467 78.001 34.54C78.7529 34.7262 79.4118 34.8193 79.9775 34.8193C80.6149 34.8193 81.0697 34.7262 81.3418 34.54C81.6211 34.3467 81.7607 34.096 81.7607 33.7881C81.7607 33.5876 81.7035 33.4085 81.5889 33.251C81.4814 33.0863 81.2451 32.9036 80.8799 32.7031C80.5146 32.4954 79.9417 32.2269 79.1611 31.8975C78.4092 31.5824 77.7897 31.2637 77.3027 30.9414C76.8229 30.6191 76.4648 30.2396 76.2285 29.8027C75.9993 29.3587 75.8848 28.7965 75.8848 28.1162C75.8848 27.0062 76.3145 26.1719 77.1738 25.6133C78.0404 25.0475 79.1969 24.7646 80.6436 24.7646C81.3883 24.7646 82.0973 24.8398 82.7705 24.9902C83.4508 25.1406 84.1491 25.3805 84.8652 25.71L83.877 28.0732C83.2826 27.8154 82.7204 27.6042 82.1904 27.4395C81.6676 27.2747 81.1341 27.1924 80.5898 27.1924C80.11 27.1924 79.7484 27.2568 79.5049 27.3857C79.2614 27.5146 79.1396 27.7116 79.1396 27.9766C79.1396 28.1699 79.2005 28.3418 79.3223 28.4922C79.4512 28.6426 79.6947 28.8109 80.0527 28.9971C80.418 29.1761 80.9515 29.4089 81.6533 29.6953C82.3337 29.9746 82.9245 30.2682 83.4258 30.5762C83.9271 30.877 84.3138 31.2529 84.5859 31.7041C84.8581 32.1481 84.9941 32.7246 84.9941 33.4336ZM92.8604 34.6045C93.2184 34.6045 93.5658 34.5687 93.9023 34.4971C94.2461 34.4255 94.5863 34.3359 94.9229 34.2285V36.667C94.5719 36.8245 94.1351 36.9535 93.6123 37.0537C93.0967 37.1611 92.5309 37.2148 91.915 37.2148C91.1989 37.2148 90.5544 37.1003 89.9814 36.8711C89.4157 36.6348 88.9681 36.2301 88.6387 35.6572C88.3164 35.0771 88.1553 34.2715 88.1553 33.2402V27.4502H86.5869V26.0645L88.3916 24.9688L89.3369 22.4336H91.4316V24.9902H94.7939V27.4502H91.4316V33.2402C91.4316 33.6986 91.5605 34.0423 91.8184 34.2715C92.0833 34.4935 92.4307 34.6045 92.8604 34.6045Z" fill="#fff"/><rect x="1.5" y="1.5" width="138" height="53" rx="6.5" stroke="#353A40"/><path d="M182.902 32.6387C182.902 33.5697 182.677 34.3789 182.226 35.0664C181.774 35.7539 181.116 36.2839 180.249 36.6562C179.39 37.0286 178.344 37.2148 177.112 37.2148C176.568 37.2148 176.035 37.179 175.512 37.1074C174.996 37.0358 174.498 36.932 174.019 36.7959C173.546 36.6527 173.095 36.4772 172.665 36.2695V33.1758C173.41 33.5052 174.183 33.8024 174.985 34.0674C175.787 34.3324 176.582 34.4648 177.37 34.4648C177.914 34.4648 178.351 34.3932 178.681 34.25C179.017 34.1068 179.261 33.9098 179.411 33.6592C179.562 33.4085 179.637 33.1221 179.637 32.7998C179.637 32.4059 179.504 32.0693 179.239 31.79C178.974 31.5107 178.609 31.2493 178.144 31.0059C177.685 30.7624 177.166 30.501 176.586 30.2217C176.221 30.0498 175.823 29.8421 175.394 29.5986C174.964 29.348 174.556 29.0436 174.169 28.6855C173.782 28.3275 173.464 27.8942 173.213 27.3857C172.969 26.8701 172.848 26.2542 172.848 25.5381C172.848 24.5999 173.062 23.7979 173.492 23.1318C173.922 22.4658 174.534 21.9574 175.329 21.6064C176.131 21.2484 177.076 21.0693 178.165 21.0693C178.981 21.0693 179.758 21.166 180.496 21.3594C181.241 21.5456 182.018 21.8177 182.827 22.1758L181.753 24.7646C181.03 24.471 180.382 24.2454 179.809 24.0879C179.236 23.9232 178.652 23.8408 178.058 23.8408C177.642 23.8408 177.288 23.9089 176.994 24.0449C176.701 24.1738 176.479 24.36 176.328 24.6035C176.178 24.8398 176.103 25.1156 176.103 25.4307C176.103 25.8031 176.21 26.1182 176.425 26.376C176.647 26.6266 176.976 26.8701 177.413 27.1064C177.857 27.3428 178.409 27.6185 179.067 27.9336C179.869 28.3132 180.553 28.7106 181.119 29.126C181.692 29.5342 182.132 30.0176 182.44 30.5762C182.748 31.1276 182.902 31.8151 182.902 32.6387ZM190.693 24.7646C191.803 24.7646 192.759 24.9795 193.562 25.4092C194.364 25.8317 194.983 26.4476 195.42 27.2568C195.857 28.0661 196.075 29.0544 196.075 30.2217V31.8115H188.33C188.366 32.7354 188.642 33.4622 189.157 33.9922C189.68 34.515 190.403 34.7764 191.327 34.7764C192.093 34.7764 192.795 34.6976 193.433 34.54C194.07 34.3825 194.725 34.1462 195.398 33.8311V36.3662C194.804 36.6598 194.181 36.8747 193.529 37.0107C192.885 37.1468 192.101 37.2148 191.177 37.2148C189.974 37.2148 188.907 36.9928 187.976 36.5488C187.052 36.1048 186.325 35.4281 185.795 34.5186C185.272 33.609 185.011 32.4632 185.011 31.0811C185.011 29.6774 185.247 28.5101 185.72 27.5791C186.2 26.641 186.866 25.9391 187.718 25.4736C188.57 25.001 189.562 24.7646 190.693 24.7646ZM190.715 27.0957C190.077 27.0957 189.548 27.2998 189.125 27.708C188.71 28.1162 188.47 28.7572 188.405 29.6309H193.003C192.996 29.1439 192.906 28.7106 192.734 28.3311C192.57 27.9515 192.319 27.6507 191.982 27.4287C191.653 27.2067 191.23 27.0957 190.715 27.0957ZM203.866 37.2148C202.677 37.2148 201.664 37 200.826 36.5703C199.988 36.1335 199.351 35.4603 198.914 34.5508C198.477 33.6413 198.259 32.4775 198.259 31.0596C198.259 29.5915 198.506 28.3955 199 27.4717C199.501 26.5407 200.192 25.8568 201.073 25.4199C201.961 24.9831 202.989 24.7646 204.156 24.7646C204.987 24.7646 205.703 24.847 206.305 25.0117C206.913 25.1693 207.443 25.359 207.895 25.5811L206.928 28.1162C206.412 27.9085 205.932 27.7402 205.488 27.6113C205.044 27.4753 204.6 27.4072 204.156 27.4072C203.583 27.4072 203.107 27.5433 202.728 27.8154C202.348 28.0804 202.065 28.4814 201.879 29.0186C201.693 29.5557 201.6 30.2288 201.6 31.0381C201.6 31.833 201.7 32.4919 201.9 33.0146C202.101 33.5374 202.391 33.9277 202.771 34.1855C203.15 34.4362 203.612 34.5615 204.156 34.5615C204.837 34.5615 205.442 34.472 205.972 34.293C206.502 34.1068 207.017 33.849 207.519 33.5195V36.3232C207.017 36.6383 206.491 36.8639 205.939 37C205.395 37.1432 204.704 37.2148 203.866 37.2148ZM221.476 30.9736C221.476 31.9762 221.34 32.8643 221.067 33.6377C220.802 34.4111 220.412 35.0664 219.896 35.6035C219.388 36.1335 218.772 36.5345 218.049 36.8066C217.333 37.0788 216.523 37.2148 215.621 37.2148C214.776 37.2148 213.999 37.0788 213.29 36.8066C212.588 36.5345 211.976 36.1335 211.453 35.6035C210.938 35.0664 210.536 34.4111 210.25 33.6377C209.971 32.8643 209.831 31.9762 209.831 30.9736C209.831 29.6416 210.067 28.5137 210.54 27.5898C211.013 26.666 211.686 25.9642 212.56 25.4844C213.433 25.0046 214.475 24.7646 215.686 24.7646C216.81 24.7646 217.805 25.0046 218.672 25.4844C219.546 25.9642 220.229 26.666 220.724 27.5898C221.225 28.5137 221.476 29.6416 221.476 30.9736ZM213.172 30.9736C213.172 31.7614 213.258 32.4238 213.43 32.9609C213.602 33.498 213.87 33.9027 214.235 34.1748C214.601 34.4469 215.077 34.583 215.664 34.583C216.244 34.583 216.713 34.4469 217.071 34.1748C217.437 33.9027 217.701 33.498 217.866 32.9609C218.038 32.4238 218.124 31.7614 218.124 30.9736C218.124 30.1787 218.038 29.5199 217.866 28.9971C217.701 28.4671 217.437 28.0697 217.071 27.8047C216.706 27.5397 216.23 27.4072 215.643 27.4072C214.776 27.4072 214.146 27.7044 213.752 28.2988C213.365 28.8932 213.172 29.7848 213.172 30.9736ZM231.254 24.7646C232.536 24.7646 233.567 25.1156 234.348 25.8174C235.128 26.512 235.519 27.6292 235.519 29.1689V37H232.242V29.9854C232.242 29.126 232.085 28.4779 231.77 28.041C231.462 27.6042 230.975 27.3857 230.309 27.3857C229.306 27.3857 228.622 27.7259 228.257 28.4062C227.892 29.0866 227.709 30.0677 227.709 31.3496V37H224.433V24.9902H226.936L227.376 26.5264H227.559C227.816 26.111 228.135 25.7744 228.515 25.5166C228.901 25.2588 229.327 25.069 229.793 24.9473C230.266 24.8255 230.753 24.7646 231.254 24.7646ZM242.944 37.2148C241.605 37.2148 240.513 36.6921 239.668 35.6465C238.83 34.5938 238.411 33.0505 238.411 31.0166C238.411 28.9613 238.837 27.4072 239.689 26.3545C240.542 25.2946 241.655 24.7646 243.03 24.7646C243.603 24.7646 244.108 24.8434 244.545 25.001C244.982 25.1585 245.358 25.3698 245.673 25.6348C245.995 25.8997 246.267 26.1969 246.489 26.5264H246.597C246.554 26.2972 246.5 25.9606 246.436 25.5166C246.378 25.0654 246.35 24.6035 246.35 24.1309V20.2852H249.637V37H247.123L246.489 35.4424H246.35C246.142 35.7718 245.881 36.0726 245.565 36.3447C245.257 36.6097 244.889 36.821 244.459 36.9785C244.029 37.1361 243.524 37.2148 242.944 37.2148ZM244.094 34.6045C244.989 34.6045 245.619 34.3395 245.984 33.8096C246.357 33.2725 246.554 32.4668 246.575 31.3926V31.0381C246.575 29.8708 246.396 28.9792 246.038 28.3633C245.68 27.7402 245.014 27.4287 244.04 27.4287C243.317 27.4287 242.751 27.7402 242.343 28.3633C241.935 28.9863 241.73 29.8851 241.73 31.0596C241.73 32.234 241.935 33.1185 242.343 33.7129C242.758 34.3073 243.342 34.6045 244.094 34.6045Z" fill="#353A40"/><line x1="284.5" y1="16" x2="284.5" y2="40" stroke="#353A40"/><path d="M335.117 37H331.787V24.0664H327.522V21.2949H339.382V24.0664H335.117V37ZM345.067 20.2852V23.6904C345.067 24.2848 345.046 24.8506 345.003 25.3877C344.967 25.9248 344.938 26.3044 344.917 26.5264H345.089C345.347 26.111 345.651 25.7744 346.002 25.5166C346.36 25.2588 346.754 25.069 347.184 24.9473C347.613 24.8255 348.075 24.7646 348.569 24.7646C349.436 24.7646 350.191 24.9186 350.836 25.2266C351.48 25.5273 351.982 26.0036 352.34 26.6553C352.698 27.2998 352.877 28.1377 352.877 29.1689V37H349.601V29.9854C349.601 29.126 349.443 28.4779 349.128 28.041C348.813 27.6042 348.326 27.3857 347.667 27.3857C347.008 27.3857 346.489 27.5397 346.109 27.8477C345.73 28.1484 345.461 28.596 345.304 29.1904C345.146 29.7777 345.067 30.4974 345.067 31.3496V37H341.791V20.2852H345.067ZM359.776 24.9902V37H356.5V24.9902H359.776ZM358.144 20.2852C358.631 20.2852 359.049 20.3997 359.4 20.6289C359.751 20.8509 359.927 21.2699 359.927 21.8857C359.927 22.4945 359.751 22.917 359.4 23.1533C359.049 23.3825 358.631 23.4971 358.144 23.4971C357.649 23.4971 357.227 23.3825 356.876 23.1533C356.532 22.917 356.36 22.4945 356.36 21.8857C356.36 21.2699 356.532 20.8509 356.876 20.6289C357.227 20.3997 357.649 20.2852 358.144 20.2852ZM370.178 24.7646C370.342 24.7646 370.532 24.7754 370.747 24.7969C370.969 24.8112 371.148 24.8327 371.284 24.8613L371.037 27.9336C370.93 27.8978 370.776 27.8727 370.575 27.8584C370.382 27.8369 370.214 27.8262 370.07 27.8262C369.648 27.8262 369.236 27.8799 368.835 27.9873C368.441 28.0947 368.087 28.2702 367.771 28.5137C367.456 28.75 367.206 29.0651 367.02 29.459C366.84 29.8457 366.751 30.3219 366.751 30.8877V37H363.475V24.9902H365.956L366.439 27.0098H366.601C366.837 26.6016 367.131 26.2292 367.481 25.8926C367.84 25.5488 368.244 25.2767 368.695 25.0762C369.154 24.8685 369.648 24.7646 370.178 24.7646ZM377.518 37.2148C376.178 37.2148 375.086 36.6921 374.241 35.6465C373.403 34.5938 372.984 33.0505 372.984 31.0166C372.984 28.9613 373.41 27.4072 374.263 26.3545C375.115 25.2946 376.229 24.7646 377.604 24.7646C378.176 24.7646 378.681 24.8434 379.118 25.001C379.555 25.1585 379.931 25.3698 380.246 25.6348C380.568 25.8997 380.84 26.1969 381.062 26.5264H381.17C381.127 26.2972 381.073 25.9606 381.009 25.5166C380.951 25.0654 380.923 24.6035 380.923 24.1309V20.2852H384.21V37H381.696L381.062 35.4424H380.923C380.715 35.7718 380.454 36.0726 380.139 36.3447C379.831 36.6097 379.462 36.821 379.032 36.9785C378.603 37.1361 378.098 37.2148 377.518 37.2148ZM378.667 34.6045C379.562 34.6045 380.192 34.3395 380.558 33.8096C380.93 33.2725 381.127 32.4668 381.148 31.3926V31.0381C381.148 29.8708 380.969 28.9792 380.611 28.3633C380.253 27.7402 379.587 27.4287 378.613 27.4287C377.89 27.4287 377.324 27.7402 376.916 28.3633C376.508 28.9863 376.304 29.8851 376.304 31.0596C376.304 32.234 376.508 33.1185 376.916 33.7129C377.331 34.3073 377.915 34.6045 378.667 34.6045Z" fill="#353A40"/></g><rect x="1" y="1" width="425" height="54" rx="9" stroke="#353A40" stroke-width="2"/></g><defs><clipPath id="clip0_7388_84177"><rect x="2" y="2" width="423" height="52" rx="8" fill="#fff"/></clipPath></defs></svg>
